X: 11
T: Yester House
R:Reel
C:Niel Gow
O:Scotland
A:Inver (Perth)
B:(n233) Gow Collection of Scottish Dance Music - Oak Publications
S: Forgeot Eric <eforgeot:yahoo.fr> abcusers 2002-6-27
Z:anamnese:caramail.com
M:C
L:1/8
%Q:1/4=130
K:A
 a | e<A~e>c d=GB=g | e<A~e>c ef=g(b|\
a)>f=g>e d=GBd | ~e>d=g>B {B}A2 A :|
 B | Aaa>f =gGBd | Aaa>g aAab |\
 =g<be<g dGBd | ~e>d=g>B {B}A2 AB |
   Aaa>f =gGBd | Aa~a>g aAab |\
 =g<be<g dGBd | ~e>d=g>B {B}A2 A |]

%%sep 1 1 500

